X:1
T:G Major Daniel Belknap, 1806
T:Isaac Watts, 1709 (Hymn 47, Book 2)  88. 88. (L. M.)
T:Stoneham
T:Transcribed from The Village Compilation, 1806.
%%score [ 1 2 3 4 ]
L:1/8
M:4/4
K:G
V:1 treble nm="Treble" snm="Tr."
V:2 treble nm="Counter" snm="C."
V:3 treble-8 nm="Tenor" snm="T."
V:4 bass nm="Bass" snm="B."
V:1
 B4 d2 d2 | d2 c2 BA GF | G6 B2 | cB cd e3 G | AB ^c2 d4- | d4 B4 | d2 B2 B2 g2 | d2 B2 B2 G2 | %8
w: 1.~Now to the|Lord a no- * ble *|song! A-|wake, * my * soul, A-|wake * my tongue;|* Ho-|san- na to th'e-|ter- nal name, And|
 A3 B c2 B2 | (A2 G2) F4 | G8 |: z4 B4 | B2 B2 d2 B2 | c2 B2 e3 d | c2 B2 A2 GA | B4 A4 | %16
w: all his bound- less|love * pro-|claim.|See|where it shines in|Je- sus' face, the|brigh- test im- age *|of His|
 A6"^God,        in   the    per   –  son" z2 | z8 |"^of     his     Son," z4 z2 d2 | g2 e2 ed e2 | %20
w: grace;||Has|all his migh- * tiest|
 B2 B2 B2 GA | B2 B2 B2 F2 | d2 d2 d2 B2 | ed e2 d2 g2 | d4 c4 | B8 :| %26
w: works un- done; God, *|in the per- son|of His Son, has|all * his migh- tiest|works un-|done.|
V:2
 D4 G2 G2 | F2 F2 FG A2 | G6 D2 | G2 G2 G3 G | F2 E2 D4- | D4 D4 | G2 F2 G2 D2 | G2 F2 G2 D2 | %8
w: 2.~The spa- cious|earth and spea- * ding|flood Pro-|claim the wise and|power- ful God;|* And|thy rich glo- ries|from a- far Spar-|
 G3 D E2 GF | E4 D4 | D8 |: z4 D4 | G2 G2 G2 F2 | E2 D2 E3 D | G2 G2 G2 G2 | G4 E4 | %16
w: kle in eve- ry *|rol- ling|star.|But|in his looks a|glo- ry stands, The|no- blest la- bor|of thine|
 D6"^The      pleasing    lus   –    ter" z2 | z8 | %18
w: hands;||
"^of    his    eyes       Out – shines the    won   –  ders" z8 | z8 | %20
w: ||
"^of    the   skies." z4 z2 G2 | G2 G2 G2 B2 | G2 G2 G2 D2 | G2 G2 G2 G2 | F4 F4 | G8 :| %26
w: The|plea- sing lus- ter|of his eyes Out-|shines the won- ders|of the|skies.|
V:3
 G4 B2 B2 | A2 A2 dc BA | B6 d2 | ed ef g3 d | cB AG A4- | A4 G4 | B2 d2 d2 G2 | B2 d2 d2 B2 | %8
w: Grace! 'tis a|sweet, a char- * ming *|theme; My|thoughts * re- * joice at|Je- * sus' * name:|* Ye|an- gels, dwell up-|on the sound! Ye|
 e3 d e2 dB | (c2 B2) A4 | G8 |: z4 G4 | B2 B2 B2 d2 | g2 d2 c3 B | g2 e2 e2 dc | B4 ^c4 | d6 d2 | %17
w: heav'ns, re- flect it *|to * the|ground!|O|may I live to|reach the place Where|he un- veils his *|love- ly|face! Where|
 g2 e2 ed e2 | B2 B2 B2"^And    sing    his     name        to" z2 | z8 | %20
w: all the beau- * ties|you be- hold,||
"^harps  of   gold!" z4 z2 G2 | d2 d2 d2 B2 | g2 B2 g2 B2 | gf g2 ce c2 | B3 c A2 A2 | G8 :| %26
w: Where|all his beau- ties|you be- hold, And|sing * his name * to|harps * * of|gold!|
V:4
 G,4 G,2 G,2 | D,2 D,2 B,,2 D,2 | G,6 G,2 | E,2 E,2 E,3 B, | A,2 A,,2 D,4- | D,4 G,4 | %6
 G,2 D,2 G,2 G,2 | G,2 D,2 G,2 B,2 | C3 B, A,2 G,2 | C,4 D,4 | %10
"^____________________________________________\nEdited by B. C. Johnston, 2015\n   1. Measure 12, \nTreble\n: first note changed from A to B.\n   2. Measure 21, \nCounter\n: note changed from F to G.\n   3. Measure 22, Counter: last note changed from F to B." [G,,G,]8 |: %11
 z4 G,4 | G,2 G,2 G,2 D,2 | C,2 D,2 A,3 B, | C2 B,2 C2 B,A, | G,4 A,4 | D,6 G,2 | G,2 B,2 CB, A,2 | %18
 G,2 G,2 G,2 G,2 | G,2 B,2 CB, A,2 | G,2 G,2 G,2 D,2 | G,2 G,2 G,2 D,2 | G,2 G,2 G,2 G,2 | %23
 G,2 G,2 B,,2 C,2 | D,4 D,4 | G,,8 :| %26

